X: 0531
T: QUICK-STEP For two Post Horns or Bugles
C: B. A. Burditt
B: Oliver Ditson "The Boston Collection of Instrumental Music" 1910 p.53
F: http://conquest.imslp.info/files/imglnks/usimg/8/8f/IMSLP175643-PMLP309456-bostoncollection00bost_bw.pdf
%: 2012 John Chambers <jc:trillian.mit.edu>
M: 2/4
L: 1/16
K: C
% -------------------------
V: 1
"IN B\b"\
gg |\
g2e2c2 ee | G2c2e2 gg | f2d2B2G2 | c2e2g2 gg |\
e2ee c2cc | A2c'2 "_>"c'afd | (ag).e.c (gf).d.B | c2e2c2 :|
%
V: 2
ee |\
e2c2G2 GG | E2G2c2 ee | d2B2G2F2 | E2c2e2 ee |\
c2cc G2GG | F2 [a4A4] z2 | E2G2 [G2D2]F2 | E2G2E2 :|
% -------------------------
V: 1
|: !f!g2 |\
gggg g2c'2 | b2a2 g4 | aaaa c'2a2 | a2g2 g4 |\
eeee e2f2 | .^f2.g2.a2.g2 | .d2.e2.f2.d2 |1 !/!c2!/!d2!/!e2!/!f2 :|2 c4 z2 |]
%
V: 2
|: !f!e2 |\
eeee e2e2 | g2f2 e4 | ffff a2f2 | f2e2 e4 |\
cccc c2d2 | .^d2.e2.f2.e2 | .B2.c2.d2.F2 |1 !/!E2!/!G2!/!c2!/!d2 :|2 E4 z2 |]
% -------------------------
V: 1
|: !p!ef |\
gga2 g2ef | ggc'2 e2de | ffd2 a2g2 | (e4 c)def |\
gga2 g2ef | ggc'2 e2de | ffd2 a2g2 | c2e2c2 :|
N: Phrase 3 has an extra 1/4 rest in the last bar; deleted.
%
V: 2
|: !p!cd |\
eef2 e2cd | eee2 c2Bc | ddB2 f2e2 | c2G2 EGcd |\
eef2 e2cd | eee2 c2Bc | ddB2 f2e2 | c2e2c2 :|
% -------------------------
V: 1
|: !f!ee |\
"_>"g4- ggee | !/!g2!/!e2!/!g2!/!e2 | !/!c'2!/!b2!/!a2!/!g2 | !/!f2!/!e2!/!d2!/!e2 |\
f4- ffdd | !/!f2!/!d2!/!f2!/!d2 | !/!b2!/!a2!/!g2!/!f2 | !/!e2!/!d2 c2 H:|
% -------------------------
V: 2
|: !f!cc |\
"^>"e4- eecc | !/!e2!/!c2!/!e2!/!c2 | !/!a2!/!g2!/!f2!/!e2 | !/!d2!/!c2!/!B2!/!c2 |\
d4- ddBB | !/!d2!/!B2!/!d2!/!B2 | !/!g2!/!f2!/!e2!/!d2 | !/![c2G2]!/![B2F2] [c2E2] H:|

%%sep 1 1 500
%%sep 1 1 500
